X:9070
T:La Sarrandouna
R:Bourre  3 temps
A:Massif Central
O:France
M:3/4
L:1/8
Q:1/4=200
K:F
F2A2c2|f4e2|dcdfed|cBAG F2|F2A2c2|f4e2|dcdfed|c6:|
|:AB c2d2|B4A2|GFGFGF|G4F2|AB c2d2|B4A2|GFGBAG|F4 z2:|
